X:1
T:Jesus Will Keep Every Promise
T:Jesus Will Keep Every Promise
T:H. O. Ward
T:Johnson Oatman, Jr., 1900
T:Public Domain Courtesy of the Cyber Hymnal™
T:Public Domain Courtesy of the Cyber Hymnal™
C:H. O. Ward
Z:Public Domain
Z:Courtesy of the Cyber Hymnal™
%%score ( 1 2 ) ( 3 4 )
L:1/8
Q:1/4=91
M:6/8
K:Ab
V:1 treble 
V:2 treble 
V:3 bass 
V:4 bass 
V:1
 [CE] | [CA][DB][Ec] [Ec][DB][CA] | [DB][DA][DF] [CE]2 [CE] | [Ec][EB][EA] [Ee][Ed][Ec] | %4
w: 1.~If|waves of af- flic- tion should|o- ver thee roll, Tho’|tem- pests a- round thee may|
w: 2.~When-|e’er thou art wea- ry, and|long seems the road, If|la- den with care thou art|
w: 3.~If|thou hast been pray- ing for|more of His grace, Hast|prayed to know more of His|
w: 4.~Thy|dear, lov- ing Sav- ior has|gone to pre- pare A|man- sion in glo- ry for|
 [EB]3- [EB]2 [DE] | [CA][DB][Ec] [Ec][DB][CA] | [DB][DA][DF] [CE]2 [Ec] | %7
w: sweep, * No|storms on life’s o- ceans can|in- jure thy soul, The|
w: pressed, * Thy|Sav- ior has prom- ised to|car- ry thy load, Has|
w: will, * Or|prayed to be held in His|lov- ing em- brace, He’s|
w: thee; * He’s|prom- ised to take thee to|live with Him there, If|
 [Ee][Ed][Ec] [Ed][Ec][DB] | [CA]3- [CA]2 ||"^Refrain" A | [Fd][Fd][Fd] [Fd][FA][FB] | %11
w: Sav- ior has prom- ised to|keep. *|||
w: prom- ised to give thee His|rest. *|Then|hold thy faith stea- dy, my|
w: prom- ised such prayers to ful-|fill. *|||
w: thou on- ly faith- ful wilt|be. *|||
 [Ec] [Ee]4 [Ac] | A3 [AB]2 [Ac] | [GB]3- [GB]2 [Ed] | [Ec]4 [EB][EA] | [DB]4 [DA][DF] | %16
w: |||||
w: bro- ther, And|be not a-|fraid; * For|Je- sus will|keep Ev- ery|
w: |||||
w: |||||
 [CE]3 (EF)[DG] | [CA]3- [CA]2 |] %18
w: ||
w: prom- ise * He’s|made. *|
w: ||
w: ||
V:2
 x | x6 | x6 | x6 | x6 | x6 | x6 | x6 | x5 || A | x6 | x6 | A3 x3 | x6 | x6 | x6 | x3 D2 x | x5 |] %18
V:3
 [A,,A,] | [A,,A,][A,,A,][A,,A,] [A,,A,][A,,E,][A,,E,] | [D,F,][D,F,][D,A,] [A,,A,]2 [A,,A,] | %3
w: ~|~ ~ ~ ~ ~ ~|~ ~ ~ ~ ~|
 A,[A,D][A,C] [C,A,][B,,G,][A,,A,] | [E,G,]3- [E,G,]2 [E,G,] | %5
w: ~ ~ ~ ~ ~ ~|~ * ~|
 [A,,A,][A,,A,][A,,A,] [A,,A,][A,,E,][A,,E,] | [D,F,][D,F,][D,A,] [A,,A,]2 A, | %7
w: ~ ~ ~ ~ ~ ~|~ ~ ~ ~ ~|
 [A,C][A,B,]A, [E,B,][E,A,][E,G,] | [A,,A,]3- [A,,A,]2 || A, | %10
w: ~ ~ ~ ~ ~ ~|~ *|~|
 [D,A,][D,A,][D,A,] [D,A,][D,A,][D,A,] | A,[A,C][A,C] [A,C][A,C][A,E] | %12
w: ~ ~ ~ ~ ~ ~|~ ~ my bro- ther, and|
 [CE][CE][CE] [B,=D]2 [B,D] | [E,E][E,E][E,E] [E,E]2 [E,G,] | %14
w: be not a- fraid, and|be not a- fraid, ~|
 [A,,A,][A,,A,][A,,A,] [A,,A,][B,,G,][C,A,] | [D,F,][D,F,][D,F,] [D,F,][D,F,][D,F,] | %16
w: Je- sus will keep ev- ery|prom- ise, will keep ev- ery|
 [E,A,]3 [E,G,]2 E, | [A,,E,]3- [A,,E,]2 |] %18
w: ||
V:4
 x | x6 | x6 | A, x5 | x6 | x6 | x5 A, | x2 A, x3 | x5 || A, | x6 | A, x5 | x6 | x6 | x6 | x6 | %16
 x5 E, | x5 |] %18

